!!!COM: Bach, Johann Sebastian
!!!OPR: Joh. Seb. Bachs vierstimmige Choralgesänge
!!!XEN: Four-part Chorales
!!!OTL: 102. Jesu, der du selbst so wohl
!!!SCT: BWV 355
!!!SCA: Thematisch-systematisches Verzeichnis der musikalischen Werke Johann Sebastian Bach: Bach-Werke-Verzeichnis (Schmieder)
!!!YOR: Bach Gesellschaft Edition xxxix
!!!ENC: Steven Rasmussen
!!!CDT: 1685/3//-1750/7/28/
!!!OCY: Deutschland
!!!YEC: Copyright (c) 1994, 2000 Center for Computer Assisted Research in the Humanities
!!!YEM: Rights to all derivative editions reserved
!!!YEN: United States of America
**kern	**kern	**kern	**kern	**silbe
*I:[BASSO]	*I:[TENORE]	*I:[ALTO]	*I:[SOPRANO]	*I:[SOPRANO]
*clefF4	*clefGv2	*clefG2	*clefG2	*
*k[f#c#g#]	*k[f#c#g#]	*k[f#c#g#]	*k[f#c#g#]	*
*A:	*A:	*A:	*A:	*
*M4/4	*M4/4	*M4/4	*M4/4	*
=1-	=1-	=1-	=1-	=1-
4AA	4A	4e	4cc#	Je-
4C#	4A	4e	4a	-su,
4D	4A	4f#	4b	der
4E	4G#	4e	4b	du
=2	=2	=2	=2	=2
8AL	4A	4e	4cc#	selbst
8G#J	.	.	.	.
4F#	4A	4f#	4dd#	so
2E;	2B;	2g#;	2ee;	wohl
=3	=3	=3	=3	=3
8EL	4e	4g#	4b	hast
8DJ	.	.	.	.
4C#	4e	4a	4cc#	den
4BB	8dL	8aL	4dd	Tod
.	8BJ	8g#J	.	.
4AA	4e	4a	4cc#	ge-
=4	=4	=4	=4	=4
4D	8f#L	4a	2b	-schme-
.	8d	.	.	.
4E	8B	4g#	.	.
.	16eL	.	.	.
.	16dJJ	.	.	.
2AA;	2c#;	2e;	2a;	-cket,
=5	=5	=5	=5	=5
4E	4e	4g#	4b	hilf
8EL	4e	4g#	4b	mir,
8DJ	.	.	.	.
4C#	8eL	4g#	4ee	wenn
.	8dJ	.	.	.
4F#	4c#	4a#	4ee	ich
=6	=6	=6	=6	=6
8BBL	4c#	4f#	4dd	ster-
8C#J	.	.	.	.
8DL	4B	4f#	4dd	-ben
8EJ	.	.	.	.
2F#;	(4B	2f#;	2cc#;	soll,
.	4A#;)	.	.	.
=7	=7	=7	=7	=7
8BL	8d#L	4.f#	4b	wenn
8AJ	8c#J	.	.	.
4G#	4B	.	4b	der
.	.	8e	.	.
4F#	8c#L	8eL	4a	Tod
.	8AJ	8d#J	.	.
4E	4B	4e	4g#	mich
=8	=8	=8	=8	=8
4AA	4c#	4e	2f#	schre-
4BB	8BL	4d#	.	.
.	8AJ	.	.	.
2E;	2G#;	2B;	2e;	-cket:
=9	=9	=9	=9	=9
8C#L	8AL	4e	4a	Wenn
8BBJ	8BJ	.	.	.
8AAL	8c#L	4e	4a	mich
8GG#J	8BJ	.	.	.
8FF#L	8AL	8f#L	4dd	mein
8EEJ	8G#J	8g#J	.	.
8FF#L	8F#L	8aL	4dd	Ge-
8GG#J	8EJ	8bJ	.	.
=10	=10	=10	=10	=10
8AAL	4e	8bL	4cc#	-wis-
8BBJ	.	16aL	.	.
.	.	16g#JJ	.	.
8C#L	4e	4a	4cc#	-sen
8DJ	.	.	.	.
2E;	2e;	(4a	2b;	nagt
.	.	4g#;)	.	.
=11	=11	=11	=11	=11
8F#L	8c#L	4f#	4a	und
8EJ	8dJ	.	.	.
8DL	4e	4gn	4a	die
8C#J	.	.	.	.
8DL	4e	4f#	4a	SÃ¼n-
8EJ	.	.	.	.
8F#L	8dL	4f#	4a	-den
8EJ	8c#J	.	.	.
=12	=12	=12	=12	=12
8D#	8BL	8f#L	2b	pla-
4E	8G#	8eJ	.	.
.	8A	4f#	.	.
8D#	16BL	.	.	.
.	16AJJ	.	.	.
2E;	2G#;	2B;	2e;	-gen,
=13	=13	=13	=13	=13
4AA	8AL	(8c#	4ee	wenn
.	8c#J	4a)	.	.
4BB	8dL	.	4dd	der
.	8BJ	8g#	.	.
8C#L	8eL	4.a	4cc#	Sa-
8DJ	8f#J	.	.	.
4E	8BL	.	4b	-tan
.	16eL	8g#	.	.
.	16dJJ	.	.	.
=14	=14	=14	=14	=14
4F#	4c#	8g#L	4a	mich
.	.	8f#J	.	.
4C#	8.c#L	8f#L	4g#	ver-
.	.	8e#J	.	.
.	16BJk	.	.	.
2D;	2A;	2f#;	2f#;	-klagt,
=15	=15	=15	=15	=15
8DL	4d	8f#L	4b	lass
8EJ	.	8g#J	.	.
8DL	4e	4a	4a	mich
8C#J	.	.	.	.
8BBL	8dL	8aL	4dd	nicht
8EJ	8BJ	8g#J	.	.
8AAL	8c#L	4a	4cc#	ver-
8C#J	8eJ	.	.	.
=16	=16	=16	=16	=16
8DL	8f#L	4a	2b	-za-
8BBJ	8d	.	.	.
4E	8B	4g#	.	.
.	16eL	.	.	.
.	16dJJ	.	.	.
2AA;	2c#;	2e;	2a;	-gen.
==|!	==|!	==|!	==|!	==|!
*-	*-	*-	*-	*-
!!!RWG: Key is interpreted using the Humdrum key tool.
!!!URL-pdf: https://s9.imslp.org/files/imglnks/usimg/6/6b/IMSLP24489-PMLP09471-CCARH_Bach_Chorales.pdf#page=71 Musedata edition
!!!URL-pdf: https://s9.imslp.org/files/imglnks/usimg/7/7a/IMSLP04155-Bach_-_BGA_253-438.pdf#page=55 	Bach-Gesellschaft Ausgabe, Band 39 (pp.175-276) Leipzig: Breitkopf und Härtel, 1892. Plate B.W. XXXIX.
!!!END: 1994/07/08
!!!EMD: Converted from MuseData to Humdrum Dec 19, 2000, by Andreas Kornstaedt using muse2kern.
!!!EED: Craig Stuart Sapp
!!!EEV: 2024/03/31
!!!filter-keyboard: satb2gs
